X:1
T:I'll Make A Man Of You
T:I'll Make A Man Of You
T:(Recruiting Song)
T:Music by Herman Finck.
T:     Words by Arthur Wimperis.
T:Copyright 1914, in all Countries by Francis, Day &amp; Hunter
T:Copyright 1914, in all Countries by Francis, Day &amp; Hunter
T:Copyright 1914, in all Countries by Francis, Day &amp; Hunter
T:Copyright 1914, in all Countries by Francis, Day &amp; Hunter
T:Copyright 1914, in all Countries by Francis, Day &amp; Hunter
C:H
Z:A
Z:Copyright 1914, in all Countries by Francis, Day & Hunter
%%score ( 1 2 ) { ( 3 5 ) | ( 4 6 ) }
L:1/8
Q:1/4=120
M:2/4
K:Eb
V:1 treble nm="Voice"
V:2 treble 
V:3 treble nm="Piano"
V:5 treble 
V:4 bass 
V:6 bass 
V:1
"^Tempo di Marcia" z | z4 | z4 | z4 | z2 z |S B | G B G B | G E C E | G2 G2- | G2 z B | G B G B | %11
w: |||||1.The|ar my and the|na vy need at|ten tion.|_ The|out- look is n't|
w: |||||2.I|teach the ten der|foot to face the|pow der|_ That|adds an ad ded|
 G E C E | G4- | G z G G | A G A B | G2 E E | F =E F G | E2 G G | F =E F ^F | G B =A F | B4- | %21
w: health y, you'll ad|mit.|_ But I've|got a per fect|dream of a|new re cruit ing|scheme, Which I|real ly think is|ab so lute ly|it.|
w: lus tre to my|skin,|_ And I|show the raw re|cruit how to|give a chaste sa|lute, So when|I'm pre sent ing|arms he's fall ing|in.|
 B2 z B | G B G B | G E C E | G2 G2- | G2 B B | G B G B | G E C E | G4- | G z G G | =A ^G A B | %31
w: _ If|on ly oth er|girls would do as|I do|* I be|lieve that we could|man age it a|lone,|_ For I|turn all suit- ors|
w: _ It|makes you almost *|proud to be a|wom an|* When you|make a strapping *|sol dier of a|kid,|_ And he|says, "You put me|
 =G G G G | c =B c d | _B B2 D/ D/ | E F G B | =A G A F | B4- | B2 z B, |: E E2 E | E F G A | B4 | %41
w: from me but the|sail or and the|Tom my I've an|ar my and a|na vy of my|own.|_ On|Sun day I|walk out with a|Sol-|
w: thro' it and I|did n't want to|do it But you|went and made me|love you, so I|did."|_ On|Sun day I|walk out with a|Bo'-|
 e2 z e | c c2 c | c B A c | B4- | B3 G | A A2 A | G3 E | F F2 G | E3 G | F2 e2 | d2 c2 | B4- | %53
w: dier. On|Mon day I'm|tak en by a|Tar,|_ On|Tues day I'm|out with|ba by Boy|Scout. On|Wednes day,|a Hus|sar.|
w: sun. On|Mon day a|Ri fle man in|green.|_ On|Tues day I|choose a|"sub" in the|"Blues," On|Wednes day,|a Ma|rine.|
 B3 B, | E E2 E | E F G A | B4 | e2 z e | d d2 d | d c =B =A | d4- | d2 d d | e3/2 d/ e c | %63
w: _ On|Thurs day I|gang oot wi' a|Scot-|tie, On|Fri- day, the|Cap tain of the|crew;|_ But on|Sat ur day I'm|
w: _ On|Thurs day a|Ter ri er from|Toot-|ing, On|Fri- day, a|Mid ship man or|two,|_ But on|Sat ur day I'm|
 B G G B | e3/2 d/ e c | B G2 B | e e e e | e d c d |1 e2 z2 | z2 z B, :|2 e4- | e3!fine! || z | %73
w: wil ling, if you'll|on ly take the|shil ling, To|make a man of|an y one of|you.|On|you.|_||
w: wil ling if you'll|on ly take the|shil ling, To|make a man of|an y one of|you.|On|you.|_||
 z4 | z4 | z4 | z2 z!D.S.! |] %77
w: ||||
w: ||||
V:2
 x | x4 | x4 | x4 | x3 | x | x4 | x4 | x4 | x4 | x4 | x4 | x4 | x4 | x4 | x4 | x4 | x4 | x4 | x4 | %20
w: ||||||||||||||||||||
 x4 | x4 | x4 | x4 | x4 | x4 | x4 | x4 | x4 | x4 | x4 | x4 | x4 | x4 | x4 | x4 | x4 | x3 B |: x4 | %39
w: |||||||||||||||||||
 x4 | x4 | x4 | x4 | x4 | x4 | x4 | x4 | x3 E/ E/ | x4 | x4 | x4 | x4 | x4 | x3 B | x4 | x4 | x4 | %57
w: ||||||||* a||||||||||
 x4 | x4 | x4 | x4 | x4 | x4 | x4 | x4 | x4 | x4 | x4 |1 x4 | x3 B :|2 x4 | x3 || x | x4 | x4 | %75
w: ||||||||||||||||||
 x4 | x3 |] %77
w: ||
V:3
 !>![B,B]- | [B,B]3 !>![B,B]- | [B,B]3 !>![B,B]- | [B,B].[B,B]/.[B,B]/ .[B,B].[B,B]/.[B,B]/ | %4
 .[B,B].[B,B]/.[B,B]/ !>![Bdfb] | z |!p! .[EG].[GB] .[EG].[GB] | [EG]EC[CE] | [G,G]2 !>![G,G]2- | %9
 [G,G]3 [GB] | .[EG].[GB] .[EG].[GB] | .[EG].[CE].[A,C].[CE] | [EG]4- | [EG]2 .[Gg].[Gg] | %14
 .[Aa].[Gg].[Aa].[Bb] | [Gg]2 [Ee][Ee] | [Ff][=E=e][Ff][Gg] | [Ee]2 GG |!<(! F=EF^F!<)! | %19
 [=EG]B [_E=A]F | [B,DB]!f!(b/B/ b)(B/B,/ | B) z z [GB] | .[EG].[GB] .[EG].[GB] | [EG]EC[CE] | %24
 [G,G]2 !>![G,G]2- | [G,G]3 [GB] | .[EG].[GB] .[EG].[GB] | .[EG].[CE].[A,C].[CE] | [EG]4- | %29
 [EG]2 .[Gg].[Gg] | [=A=a][^G^g][Aa][Bb] | [=G=g]2 [Gg][Gg] | [cc'][=B=b] [cc'][dd'] | [B_b]3 D | %34
 [CE][DF] GB | =AGAF | [B,DB]!<(![B,B]/[B,B]/ [B,B][B,B]/[B,B]/ | [B,B][B,B]/[B,B]/!<)! [B,B]B, |: %38
!p!!f!"_-" [G,B,E] !>![G,B,E]2 [G,B,E] | [A,CE]F[G,CEG][A,A] |!<(! (([B,B]4!<)! | %41
 .[Ee])) x z [EGBe] | [CEAc] !>![CEAc]2 [Cc] | [Ac]BAc | [B,B]4- | [B,B]3 [G,EG] | %46
 [A,EA] [A,EA]2 [A,EA] | [G,G]2 x2 | [F,CF] [F,CF]2 [G,DG] | E3 [G,CEG] | !>![F,F]2 !>![Ee]2 | %51
 !>![Dd]2 !>![Cc]2 | [B,B]4- | [B,B]3 [B,DAB] | [G,B,E] !>![G,B,E]2 [G,B,E] | [A,CE]F[G,CEG][A,A] | %56
!<(! (([B,B]4!<)! | .[Ee])) x z [EGBe] | [D^Fcd] [DFcd]2 [DFcd] | [D^Fcd][Cc][=B,C=B][=A,=A] | %60
 [Dd]4- | [Dd]2 !>![D_A_Bd]2 | !>!e>dec | B G2 [GB] | !>!e>dec | B G2 [GB] | [EGe][Ee][E=Ae][Ee] | %67
 [E_Ae][Dd][CAc][Dd] |1 [EGe] z!ff! !>![B,B]2 | !>![A,A]!>![G,G] !>![F,F][B,B] :|2 %70
 [EGe] z [EGe] z | [egbe']2"_Fine." z ||!f! !>![B,B]- | [B,B]3 !>![B,B]- | [B,B]3 !>![B,B]- | %75
 [B,B].[B,B]/.[B,B]/ .[B,B].[B,B]/.[B,B]/ | .[B,B].[B,B]/.[B,B]/ !>![Bdfb] |] %77
V:4
 z | .[A,,A,].[G,,G,] !>![F,,F,]2 | .[A,,A,].[G,,G,] !>![F,,F,]2 | %3
 .[A,,A,].[G,,G,].[F,,F,].[E,,E,] | .[D,,D,].[C,,C,] !>![B,,,B,,] | z | .E,.B, .B,,.B, | %7
 E,[G,B,] B,,[G,B,] | [E,,E,]2 [D,,D,]2 | [C,,C,]2 [B,,,B,,]2 | E,B, B,,B, | E,[G,B,] A,,[E,A,] | %12
 E,[G,B,] D,[G,B,] | C,[G,B,] B,,[G,B,] | F,[A,CE] B,,[A,B,D] | E,[G,B,D] E,[G,B,C] | %16
 D,[F,A,C] G,,[F,G,=B,] | C,[E,G,C] C,[E,G,_B,] | [D,,D,]3 [_D,,_D,] | [C,,C,]2 [F,,F,]2 | %20
 [B,,,B,,] z z2 |!f! z (B,,,/B,,/ B,,,) z | .E,.B, .B,,.B, | E,[G,B,] B,,[G,B,] | %24
 [E,,E,]2 [D,,D,]2 | [C,,C,]2 [B,,,B,,]2 | E,B, B,,B, | E,[G,B,] A,,[E,A,] | E,[G,B,] D,[G,B,] | %29
 C,[G,B,] B,,[G,B,] | E,[=G,A,C] D,[^F,C] | G,, [D,G,B,]2 [G,B,D] | _G,[B,CE] F,[=A,E] | %33
 B,, [F,B,D]2 z | [C,G,]2 [C,,C,]2 | CB,C=A, | (([B,,,B,,]2 [C,,C,]2 | [^C,,^C,]2 [D,,D,]2)) |: %38
 [E,,E,]z[E,,E,] z | [A,,,A,,]z[A,,,A,,] z | .[E,,E,]z.[D,,D,] z | .[C,,C,]z.[B,,,B,,] z | %42
 [A,,,A,,] z [A,,A,] z | A,,A, F,,F, | [G,,G,]2 [F,,F,]2 | [E,,E,]2 [D,,D,]2 | %46
 .[C,,C,]z.[D,,D,] z | .[E,,E,]z.[G,,,G,,] E, | .[=A,,,=A,,]z.[=B,,,=B,,] z | %49
 [C,,C,]z[_B,,,_B,,] z | [=A,,,=A,,]z[F,,,F,,] z | [G,,,G,,]z[=A,,,=A,,] z | %52
 !>![B,,,B,,]2 !>![_A,,,_A,,]2 | !>![G,,,G,,]2 !>![F,,,F,,]2 | [E,,E,] z [E,,E,] z | %55
 [A,,,A,,] z [A,,,A,,] z | .[E,,E,]z.[D,,D,] z | .[C,,C,]z.[B,,,B,,] z | =A,,D, D,,D, | %59
 =E,,D, ^F,,D, | G,,D, =A,,D, | =B,,D, !>!_B,,2 | E,[G,B,E] A,[CE] | G,[B,E] E,[B,E] | %64
 G,[B,E] A,[CE] | G,[B,E] E,[B,E] | [C,,C,]2 [F,,F,]2 | B,,,B,, B,,,B,, |1 [E,,E,] z !>!B,,2 | %69
 !>!A,,!>!G,, !>!F,,B,, :|2 [E,,E,] z [B,,,B,,] z | [E,,,E,,]2 z || z | %73
 .[A,,A,].[G,,G,] !>![F,,F,]2 | .[A,,A,].[G,,G,] !>![F,,F,]2 | .[A,,A,].[G,,G,].[F,,F,].[E,,E,] | %76
 .[D,,D,].[C,,C,] !>![B,,,B,,] |] %77
V:5
 x | x4 | x4 | x4 | x3 | x | x4 | x4 | z [B,E] z [B,E] | z [B,E] x2 | x4 | x4 | x4 | x4 | x4 | x4 | %16
 x4 | x4 | B,3 [B,_E] | B,2 =A,2 | x4 | x4 | x4 | x4 | z [B,E] z [B,E] | z [B,E] x2 | x4 | x4 | %28
 x4 | x4 | x4 | x4 | x4 | x4 | x2 [B,E]2 | E3 E | x4 | x4 |: x4 | x4 | z [EG] z [EG] | z [GB] x2 | %42
 x4 | [CE]2 [=DA]2 | z [EG]z[EG] | z [EG] z x | x4 | z [B,E]2 E | x4 | z [G,C]2 x | %50
 z [CE] z [=Ac] | z [F=A] z [EF] | z [DF] z [DF] | z [DF]2 x | x4 | x4 | z [EG] z [EG] | %57
 z [GB] x2 | x4 | x4 | z [G=B] z [GB] | z G x2 | x4 | x4 | x4 | x4 | x4 | x4 |1 x4 | x4 :|2 x4 | %71
 x3 || x | x4 | x4 | x4 | x3 |] %77
V:6
 x | x4 | x4 | x4 | x3 | x | x4 | x4 | x4 | x4 | x4 | x4 | E,2 D,2 | C,2 B,,2 | x4 | x4 | x4 | x4 | %18
 x4 | x4 | x4 | x4 | x4 | x4 | x4 | x4 | x4 | x4 | E,2 D,2 | C,2 B,,2 | x4 | x4 | _G,2 F,2 | x4 | %34
 x4 | F,3 F, | x4 | x4 |: x4 | x4 | x4 | x4 | x4 | x4 | x4 | x4 | x4 | x3 z | x4 | E,3 x | x4 | %51
 x4 | x4 | x4 | x4 | x4 | x4 | x4 | x4 | x4 | x4 | x4 | x4 | x4 | x4 | x4 | x4 | x4 |1 x4 | x4 :|2 %70
 x4 | x3 || x | x4 | x4 | x4 | x3 |] %77

